packages/tokens/icons/cloudCircuits/size32Px.svg

<svg viewBox="0 0 32 32" fill="none" xmlns="http://www.w3.org/2000/svg" width="1em" height="1em"><path d="M24.8333 8.82998C24.8327 9.0859 25.0254 9.30094 25.2799 9.32826C27.6653 9.58439 29.5 11.5446 29.5 13.9C29.5 16.33 27.8993 18.5 25.3333 18.5L5.5 18.5C3.82938 18.5 2.5 17.1881 2.5 15.6C2.5 14.0001 3.91775 12.6482 5.60044 12.7016C5.84308 12.7093 6.05619 12.5416 6.10577 12.3039C6.60589 9.90646 8.87823 8.12718 11.4221 8.16737C11.6684 8.17126 11.8808 7.9952 11.9227 7.75246C12.4353 4.78201 15.1015 2.5 18.3333 2.5C21.9027 2.5 24.8411 5.40062 24.8333 8.82998Z" stroke="currentColor" stroke-linejoin="round"/><path d="M8.5 26.5C8.5 27.0523 8.05228 27.5 7.5 27.5C6.94772 27.5 6.5 27.0523 6.5 26.5C6.5 25.9477 6.94772 25.5 7.5 25.5C8.05228 25.5 8.5 25.9477 8.5 26.5Z" stroke="currentColor"/><path d="M12.5 19V25.5C12.5 26.0523 12.0523 26.5 11.5 26.5H8.5" stroke="currentColor"/><path d="M23.5 26.5C23.5 27.0523 23.9477 27.5 24.5 27.5C25.0523 27.5 25.5 27.0523 25.5 26.5C25.5 25.9477 25.0523 25.5 24.5 25.5C23.9477 25.5 23.5 25.9477 23.5 26.5Z" stroke="currentColor"/><path d="M19.5 19V25.5C19.5 26.0523 19.9477 26.5 20.5 26.5H23.5" stroke="currentColor"/><path d="M6.5 22.5C6.5 23.0523 6.05228 23.5 5.5 23.5C4.94772 23.5 4.5 23.0523 4.5 22.5C4.5 21.9477 4.94772 21.5 5.5 21.5C6.05228 21.5 6.5 21.9477 6.5 22.5Z" stroke="currentColor"/><path d="M9.5 18.5V21.5C9.5 22.0523 9.05228 22.5 8.5 22.5H6.5" stroke="currentColor"/><path d="M25.5 22.5C25.5 23.0523 25.9477 23.5 26.5 23.5C27.0523 23.5 27.5 23.0523 27.5 22.5C27.5 21.9477 27.0523 21.5 26.5 21.5C25.9477 21.5 25.5 21.9477 25.5 22.5Z" stroke="currentColor"/><path d="M22.5 18.5V21.5C22.5 22.0523 22.9477 22.5 23.5 22.5H25.5" stroke="currentColor"/><path d="M16 18.5L16 27.5" stroke="currentColor"/><path d="M17 28.5C17 29.0523 16.5523 29.5 16 29.5C15.4477 29.5 15 29.0523 15 28.5C15 27.9477 15.4477 27.5 16 27.5C16.5523 27.5 17 27.9477 17 28.5Z" stroke="currentColor"/></svg>

<svg xmlns="http://www.w3.org/2000/svg" fill="none" viewBox="0 0 32 32" width="1em" height="1em"><path stroke="currentColor" stroke-linejoin="round" d="M24.833 8.83a.5.5 0 0 0 .447.498c2.385.256 4.22 2.217 4.22 4.572 0 2.43-1.6 4.6-4.167 4.6H5.5c-1.67 0-3-1.312-3-2.9 0-1.6 1.418-2.952 3.1-2.898a.5.5 0 0 0 .506-.398c.5-2.398 2.772-4.177 5.316-4.137a.5.5 0 0 0 .5-.415c.513-2.97 3.18-5.252 6.411-5.252 3.57 0 6.508 2.9 6.5 6.33Z"/><path stroke="currentColor" d="M8.5 26.5a1 1 0 1 1-2 0 1 1 0 0 1 2 0Zm4-7.5v6.5a1 1 0 0 1-1 1h-3m15 0a1 1 0 1 0 2 0 1 1 0 0 0-2 0Zm-4-7.5v6.5a1 1 0 0 0 1 1h3m-17-4a1 1 0 1 1-2 0 1 1 0 0 1 2 0Z"/><path stroke="currentColor" d="M9.5 18.5v3a1 1 0 0 1-1 1h-2m19 0a1 1 0 1 0 2 0 1 1 0 0 0-2 0Zm-3-4v3a1 1 0 0 0 1 1h2m-9.5-4v9m1 1a1 1 0 1 1-2 0 1 1 0 0 1 2 0Z"/></svg>
